build/img/arrow-right-tablet.svg

<svg width="64" height="49" viewBox="0 0 64 49" fill="none" xmlns="http://www.w3.org/2000/svg">
<path d="M21.2967 28.6663C24.9966 33.0448 30.4069 36.8637 36.2087 36.9965C37.8163 32.7405 38.008 27.6324 37.7058 23.4777C37.1993 16.4972 32.2896 7.5264 23.9401 9.32075C14.5346 11.342 16.8111 23.3577 21.2967 28.6663ZM35.0915 11.5992C40.4114 17.2745 41.369 28.5238 38.2545 36.8875C38.7923 36.8167 39.3316 36.7238 39.8731 36.5822C53.6988 32.9701 55.9636 16.5675 56.6914 4.60756C56.7002 4.46189 56.7413 4.33623 56.7963 4.22159L56.6333 3.98433C55.892 6.22416 54.8902 8.27092 53.5244 10.3061C52.8445 11.3202 51.1942 10.3962 51.8779 9.37695C53.5242 6.9244 54.6438 4.44339 55.3737 1.56978C55.5922 0.709964 56.6504 0.685147 57.1055 1.32504C59.5281 4.73094 61.7008 8.25837 63.6544 11.959C64.2272 13.0427 62.6934 13.9388 62.0205 12.9247C60.8077 11.0978 59.5945 9.26978 58.382 7.44199C57.4376 19.2153 54.6855 32.5105 42.7271 37.5847C41.0373 38.3022 39.263 38.674 37.4635 38.7551C36.2997 41.2068 34.7457 43.3188 32.8033 44.8289C20.9525 54.0438 6.35259 44.735 0.357075 33.5341C-0.0927155 32.695 1.13071 31.9684 1.63349 32.7794C7.90019 42.9119 22.7044 53.1309 33.2913 41.8577C34.158 40.9353 34.8649 39.8728 35.4496 38.7216C26.0647 38.0346 16.6129 29.8703 15.4535 20.6122C13.9581 8.67889 27.1747 3.15159 35.0915 11.5992Z" fill="#8DD9E5"/>
<path d="M21.2967 28.6663C24.9966 33.0448 30.4069 36.8637 36.2087 36.9965C37.8163 32.7405 38.008 27.6324 37.7058 23.4777C37.1993 16.4972 32.2896 7.5264 23.9401 9.32075C14.5346 11.342 16.8111 23.3577 21.2967 28.6663ZM35.0915 11.5992C40.4114 17.2745 41.369 28.5238 38.2545 36.8875C38.7923 36.8167 39.3316 36.7238 39.8731 36.5822C53.6988 32.9701 55.9636 16.5675 56.6914 4.60756C56.7002 4.46189 56.7413 4.33623 56.7963 4.22159L56.6333 3.98433C55.892 6.22416 54.8902 8.27092 53.5244 10.3061C52.8445 11.3202 51.1942 10.3962 51.8779 9.37695C53.5242 6.9244 54.6438 4.44339 55.3737 1.56978C55.5922 0.709964 56.6504 0.685147 57.1055 1.32504C59.5281 4.73094 61.7008 8.25837 63.6544 11.959C64.2272 13.0427 62.6934 13.9388 62.0205 12.9247C60.8077 11.0978 59.5945 9.26978 58.382 7.44199C57.4376 19.2153 54.6855 32.5105 42.7271 37.5847C41.0373 38.3022 39.263 38.674 37.4635 38.7551C36.2997 41.2068 34.7457 43.3188 32.8033 44.8289C20.9525 54.0438 6.35259 44.735 0.357075 33.5341C-0.0927155 32.695 1.13071 31.9684 1.63349 32.7794C7.90019 42.9119 22.7044 53.1309 33.2913 41.8577C34.158 40.9353 34.8649 39.8728 35.4496 38.7216C26.0647 38.0346 16.6129 29.8703 15.4535 20.6122C13.9581 8.67889 27.1747 3.15159 35.0915 11.5992Z" fill="#5879E8"/>
</svg>

<svg width="64" height="49" fill="none" xmlns="http://www.w3.org/2000/svg"><path d="M21.297 28.666c3.7 4.379 9.11 8.198 14.912 8.33 1.607-4.256 1.799-9.364 1.497-13.518-.507-6.98-5.416-15.952-13.766-14.157-9.405 2.021-7.129 14.037-2.643 19.345zM35.092 11.6c5.32 5.675 6.277 16.925 3.163 25.289a13.14 13.14 0 001.618-.306C53.7 32.97 55.963 16.567 56.691 4.608a1.02 1.02 0 01.105-.386l-.163-.238a25.543 25.543 0 01-3.109 6.322c-.68 1.014-2.33.09-1.646-.929 1.646-2.453 2.766-4.934 3.496-7.807.218-.86 1.276-.885 1.731-.245a93.966 93.966 0 016.55 10.634c.572 1.084-.962 1.98-1.635.966l-3.638-5.483c-.944 11.773-3.697 25.069-15.655 30.143a15.155 15.155 0 01-5.263 1.17c-1.164 2.452-2.718 4.564-4.66 6.074C20.951 54.044 6.352 44.735.356 33.534c-.45-.839.774-1.566 1.276-.755C7.9 42.912 22.704 53.131 33.291 41.858c.867-.923 1.574-1.985 2.159-3.136-9.385-.687-18.837-8.852-19.997-18.11C13.958 8.68 27.175 3.152 35.093 11.6z" fill="#8DD9E5"/><path d="M21.297 28.666c3.7 4.379 9.11 8.198 14.912 8.33 1.607-4.256 1.799-9.364 1.497-13.518-.507-6.98-5.416-15.952-13.766-14.157-9.405 2.021-7.129 14.037-2.643 19.345zM35.092 11.6c5.32 5.675 6.277 16.925 3.163 25.289a13.14 13.14 0 001.618-.306C53.7 32.97 55.963 16.567 56.691 4.608a1.02 1.02 0 01.105-.386l-.163-.238a25.543 25.543 0 01-3.109 6.322c-.68 1.014-2.33.09-1.646-.929 1.646-2.453 2.766-4.934 3.496-7.807.218-.86 1.276-.885 1.731-.245a93.966 93.966 0 016.55 10.634c.572 1.084-.962 1.98-1.635.966l-3.638-5.483c-.944 11.773-3.697 25.069-15.655 30.143a15.155 15.155 0 01-5.263 1.17c-1.164 2.452-2.718 4.564-4.66 6.074C20.951 54.044 6.352 44.735.356 33.534c-.45-.839.774-1.566 1.276-.755C7.9 42.912 22.704 53.131 33.291 41.858c.867-.923 1.574-1.985 2.159-3.136-9.385-.687-18.837-8.852-19.997-18.11C13.958 8.68 27.175 3.152 35.093 11.6z" fill="#5879E8"/></svg>
